X:2761
T:Cathal McConnell's
M:C|
L:1/8
R:reel
N:What does Cathal McConnell himself call this tune?
Z:A version of the previous tune.
K:G
Bc|dG~G2 d3G|(3Bcd eB dcAB|cF~F2 c3A|(3Bcd eB dBAB|
dG~G2 d3G|(3Bcd eB dcAG|FGAd ~f3e|fdcA G2:|
|:Bc|dggf g2bg|dg~g2 agfe|dffe f2fe|defg agfe|
dggf g2bg|dg~g2 agfg|bg~g2 agfe|defd cA:|


